Origami/48x48/apps/hub.svg

<svg width="48" height="48" version="1" xmlns="http://www.w3.org/2000/svg">
 <path d="m24 4h-18c-1.108 0-2 0.892-2 2v18h20z" style="fill:#6655e4"/>
 <path d="m24 4h18c1.108 0 2 0.892 2 2v18h-20z" style="fill:#2cbfeb"/>
 <path d="m24 44h-18c-1.108 0-2-0.892-2-2v-18h20z" style="fill:#2cbfeb"/>
 <path d="m24 44h18c1.108 0 2-0.892 2-2v-18h-20z" style="fill:#f7c73c"/>
 <path d="m6 4c-1.108 0-2 0.892-2 2v1c0-1.108 0.892-2 2-2h36c1.108 0 2 0.892 2 2v-1c0-1.108-0.892-2-2-2h-36z" fill="#fff" opacity=".2"/>
 <path d="m6 45c-1.108 0-2-0.892-2-2v-1c0 1.108 0.892 2 2 2h36c1.108 0 2-0.892 2-2v1c0 1.108-0.892 2-2 2h-36z" opacity=".2"/>
 <rect x="10" y="10" width="28" height="28" style="fill:#3f3f3f"/>
 <path d="m16 32.9999h8" style="fill:none;opacity:.2;stroke-linecap:round;stroke-width:2;stroke:#000000"/>
 <path d="m16 32h8" style="fill:none;stroke-linecap:round;stroke-width:2;stroke:#ffffff"/>
 <path d="m16 20.9999h4.000003m0 4.000002v-8.000001m-4.000003 8.000001v-8.000001" style="fill:none;opacity:.2;stroke-linecap:round;stroke-width:1.9999999;stroke:#000000"/>
 <path d="m16 20h4.000003m0 4.000002v-8.000001m-4.000003 8.000001v-8.000001" style="fill:none;stroke-linecap:round;stroke-width:1.9999999;stroke:#ffffff"/>
 <path d="m23.999902 21.000001s4.000003-0.4645 4.000003 1.999998c0 2.464501-4.000003 2.000001-4.000003 2.000001m9.8e-5 -8.0001v8.000002m-9.8e-5 -3.977326s4.000003 0.464501 4.000003-1.999997c0-2.464502-4.000003-2.000001-4.000003-2.000001m9.8e-5 8.000099v-8.000001" style="fill:none;opacity:.2;stroke-linecap:round;stroke-linejoin:bevel;stroke-width:1.9999999;stroke:#000000"/>
 <path d="m23.999902 20.000101s4.000003-0.4645 4.000003 1.999998c0 2.464501-4.000003 2.000001-4.000003 2.000001m9.8e-5 -8.0001v8.000002m-9.8e-5 -3.977326s4.000003 0.464501 4.000003-1.999997c0-2.464502-4.000003-2.000001-4.000003-2.000001m9.8e-5 8.000099v-8.000001" style="fill:none;stroke-linecap:round;stroke-linejoin:bevel;stroke-width:1.9999999;stroke:#ffffff"/>
</svg>

<svg xmlns="http://www.w3.org/2000/svg" width="48" height="48" version="1">
 <path style="fill:#6655e4" d="m24 4h-18c-1.108 0-2 0.892-2 2v18h20z"/>
 <path style="fill:#2cbfeb" d="m24 4h18c1.108 0 2 0.892 2 2v18h-20z"/>
 <path style="fill:#2cbfeb" d="m24 44h-18c-1.108 0-2-0.892-2-2v-18h20z"/>
 <path style="fill:#f7c73c" d="m24 44h18c1.108 0 2-0.892 2-2v-18h-20z"/>
 <path fill="#fff" opacity=".2" d="m6 4c-1.108 0-2 0.892-2 2v1c0-1.108 0.892-2 2-2h36c1.108 0 2 0.892 2 2v-1c0-1.108-0.892-2-2-2h-36z"/>
 <path opacity=".2" d="m6 45c-1.108 0-2-0.892-2-2v-1c0 1.108 0.892 2 2 2h36c1.108 0 2-0.892 2-2v1c0 1.108-0.892 2-2 2h-36z"/>
 <rect style="fill:#3f3f3f" width="28" height="28" x="10" y="10"/>
 <path style="opacity:0.2;fill:none;stroke:#000000;stroke-width:2;stroke-linecap:round" d="m 16,32.9999 h 8"/>
 <path style="fill:none;stroke:#ffffff;stroke-width:2;stroke-linecap:round" d="m 16,32 h 8"/>
 <path style="opacity:0.2;fill:none;stroke:#000000;stroke-width:1.99999988;stroke-linecap:round" d="m 16,20.9999 h 4.000003 m 0,4.000002 V 16.999901 M 16,24.999902 v -8.000001 0"/>
 <path style="fill:none;stroke:#ffffff;stroke-width:1.99999988;stroke-linecap:round" d="m 16,20 h 4.000003 m 0,4.000002 V 16.000001 M 16,24.000002 v -8.000001 0"/>
 <path style="opacity:0.2;fill:none;stroke:#000000;stroke-width:1.99999988;stroke-linecap:round;stroke-linejoin:bevel" d="m 23.999902,21.000001 c 0,0 4.000003,-0.4645 4.000003,1.999998 C 27.999905,25.4645 23.999902,25 23.999902,25 M 24,16.9999 v 8.000002 m -9.8e-5,-3.977326 c 0,0 4.000003,0.464501 4.000003,-1.999997 0,-2.464502 -4.000003,-2.000001 -4.000003,-2.000001 M 24,25.022677 v -8.000001"/>
 <path style="fill:none;stroke:#ffffff;stroke-width:1.99999988;stroke-linecap:round;stroke-linejoin:bevel" d="m 23.999902,20.000101 c 0,0 4.000003,-0.4645 4.000003,1.999998 0,2.464501 -4.000003,2.000001 -4.000003,2.000001 M 24,16 v 8.000002 m -9.8e-5,-3.977326 c 0,0 4.000003,0.464501 4.000003,-1.999997 0,-2.464502 -4.000003,-2.000001 -4.000003,-2.000001 M 24,24.022777 v -8.000001"/>
</svg>
